X: 1
T: Green Groves Of Erin, The
Z: Jeremy
S: https://thesession.org/tunes/41#setting41
R: reel
M: 4/4
L: 1/8
K: Amix
|:A2 BA eABA|G2 Bd gdBG|A2 BA eABA|BGEF GBdB|
A2 BA eABA|G2 Bd gdBG|A2 BA eABA|BEED EA A2:|
|:eaag eaag|eggf eggf|eaag eaag|edef gedg|
eaag bgag|edef g2ge|dega b2 ag|egfa gedB:|

